X:1048
T:Rosie O' Grady #2
C:Joe Buchanan's Scottish Tome - Page 634.1
I:634 1
Z:Carl Allison
C:Pride of Erin waltz
R:Waltz
L:1/4
M:3/4
K:G
D | "G"B3 | "D7"A B A | "G"G3 | D3 | G3 | "D7"A G F | "G"G3- | G3 |  
"Em"G3 | G A ^A | "A7"B3 | E3 | "Em"B3 | "A7"A G E | "D7"A3 | (C/D/E/ F/G/A/) |
"G"B3 | "D7"A B A | "G"G3 | D3 | G3 | "D7"A G A | "G"B3- | B2 D |
"Em"G F G | "G"A G E | "G"D3 | "E7"A2 E | "A7"A ^G A | "D7"E F D | "G"G- | G2 |] 

